X:652
L:1/8
M:4/4
K:C
[M:6/8][K:Emin] .abc e | dBG AGE | GAB c2 e | dBG BAG | ABd e2 g | dBG AGE | GBd gfe | dBG AGE | 
 GAG G2 :|

